X: 6
T: The Blacksmith's
R: reel
M: 4/4
L: 1/8
K: Amaj
|:ec c2 ecAc | ec c2 BcdB | ec c2 ecAc | dBcA BcdB |
ec c2 ecAc | ec c2 BcdB | ec c2 ecAc | dBcA BcdB ||
|:A2 cA EAcA | A2 ce dBGB | A2 cA EAcA | dBcA BcdB |
A2 cA EAcA | A2 ce dBGB | AcEA cEAc | dBcA BcdB||


Tune 3636	Setting 16638

